src/images/youtube.svg

<svg width="68" height="47" viewBox="0 0 68 47" fill="none" xmlns="http://www.w3.org/2000/svg">
<path d="M65.6332 7.5511C65.2569 6.1496 64.5191 4.87152 63.4936 3.84476C62.4682 2.818 61.191 2.07858 59.79 1.7005C54.6329 0.313477 33.9603 0.313477 33.9603 0.313477C33.9603 0.313477 13.2877 0.313476 8.13059 1.69313C6.72895 2.06998 5.45115 2.80898 4.4255 3.83593C3.39984 4.86288 2.66245 6.14162 2.28736 7.54373C0.907715 12.7082 0.907715 23.4798 0.907715 23.4798C0.907715 23.4798 0.907715 34.2514 2.28736 39.4085C3.04728 42.2563 5.29013 44.4991 8.13059 45.2591C13.2877 46.6461 33.9603 46.6461 33.9603 46.6461C33.9603 46.6461 54.6329 46.6461 59.79 45.2591C62.6378 44.4991 64.8733 42.2563 65.6332 39.4085C67.0129 34.2514 67.0129 23.4798 67.0129 23.4798C67.0129 23.4798 67.0129 12.7082 65.6332 7.5511ZM27.394 33.366V13.5935L44.5105 23.406L27.394 33.366Z" fill="white"/>
</svg>

<svg width="68" height="47" fill="none" xmlns="http://www.w3.org/2000/svg"><path d="M65.633 7.551a8.285 8.285 0 0 0-5.843-5.85C54.633.313 33.96.313 33.96.313s-20.672 0-25.83 1.38a8.272 8.272 0 0 0-5.843 5.85C.907 12.709.907 23.48.907 23.48s0 10.771 1.38 15.928a8.285 8.285 0 0 0 5.844 5.851c5.157 1.387 25.83 1.387 25.83 1.387s20.672 0 25.829-1.387a8.272 8.272 0 0 0 5.843-5.85c1.38-5.158 1.38-15.93 1.38-15.93s0-10.77-1.38-15.928zM27.394 33.366V13.593l17.117 9.813-17.117 9.96z" fill="#fff"/></svg>
